svgs/sharp-solid/meter-bolt.svg

<svg xmlns="http://www.w3.org/2000/svg" viewBox="0 0 640 512"><!--! Font Awesome Pro 6.6.0 by @fontawesome - https://fontawesome.com License - https://fontawesome.com/license (Commercial License) Copyright 2024 Fonticons, Inc. --><path d="M256 512c80.8 0 152.9-37.5 199.9-96L384 416l0-71.7 127.9-97.1C507.2 109.9 394.4 0 256 0C114.6 0 0 114.6 0 256S114.6 512 256 512zM192 160l0 32 0 32-64 0 0-32 0-32 0-32 64 0 0 32zm96 0l0 32 0 32-64 0 0-32 0-32 0-32 64 0 0 32zm96 0l0 32 0 32-64 0 0-32 0-32 0-32 64 0 0 32zM504 384L464 512 640 376l0-24-88 0 40-128L416 360l0 24 88 0z"/></svg>

<svg xmlns="http://www.w3.org/2000/svg" viewBox="0 0 640 512"><!--! Font Awesome Pro 6.4.0 by @fontawesome - https://fontawesome.com License - https://fontawesome.com/license (Commercial License) Copyright 2023 Fonticons, Inc. --><path d="M256 512c80.8 0 152.9-37.5 199.9-96H384V344.3l127.9-97.1C507.2 109.9 394.4 0 256 0C114.6 0 0 114.6 0 256S114.6 512 256 512zM192 160v32 32H128V192 160 128h64v32zm96 0v32 32H224V192 160 128h64v32zm96 0v32 32H320V192 160 128h64v32zM504 384L464 512 640 376V352H552l40-128L416 360v24h88z"/></svg>
